X:5889
T:Gan Ainm
R:Reel
S:
H:
N:Not easy to make out 
D:Milltown Session
Z:Adrian Scahill
M:4/4
L:1/8
K:D
dAA2 ^GA=GA|FAde fdec|dBB2 ^GABG|ABde fdec|\
dAA2 BAGA|FAde fd (3efe|dBB2 GBEB|ABde fdec||\
defe efge|dfaf gefe|defd efg^g|aAA2 gAfe|\
d3f efge|dfaf g2fe|defd efge|aAA2 gefe||


